packages/icons/src/components/Icon/assets/small-outline/pen2.svg

<svg width="16" height="16" viewBox="0 0 16 16" fill="none" xmlns="http://www.w3.org/2000/svg">
<path fill-rule="evenodd" clip-rule="evenodd" d="M10.4907 1.77368C11.5222 0.742107 13.1948 0.742107 14.2263 1.77368C15.2579 2.80525 15.2579 4.47775 14.2263 5.50932L6.5539 13.1817C6.21048 13.5252 5.80278 13.7976 5.35408 13.9834L3.19143 14.8792C2.59919 15.1245 1.91749 14.9889 1.46423 14.5356C1.01096 14.0823 0.875376 13.4006 1.1207 12.8083L1.85282 13.1116L1.1207 12.8083L2.01645 10.646C2.20229 10.1973 2.47468 9.78967 2.81806 9.44629L10.4907 1.77368ZM13.1056 2.89437C12.693 2.48174 12.024 2.48174 11.6114 2.89437L3.93876 10.567C3.74254 10.7632 3.58689 10.9961 3.48069 11.2525L2.74857 10.9492L3.48069 11.2525L2.58495 13.4149L4.74759 12.5192C5.004 12.413 5.23697 12.2573 5.43321 12.0611L13.1056 4.38863C13.5183 3.976 13.5183 3.307 13.1056 2.89437Z" fill="black"/>
</svg>

<svg xmlns="http://www.w3.org/2000/svg" width="16" height="16" fill="none" viewBox="0 0 16 16">
    <path fill="#000" fill-rule="evenodd" d="M10.49 1.774a2.641 2.641 0 1 1 3.736 3.735l-7.672 7.673a3.7 3.7 0 0 1-1.2.801l-2.163.896a1.585 1.585 0 0 1-2.07-2.07l.732.303-.732-.304.895-2.162c.186-.449.459-.856.802-1.2zm2.616 1.12a1.057 1.057 0 0 0-1.495 0L3.94 10.567c-.196.196-.352.43-.458.685l-.732-.303.732.303-.896 2.163 2.163-.896c.256-.106.489-.262.685-.458l7.673-7.672a1.056 1.056 0 0 0 0-1.495" clip-rule="evenodd"/>
</svg>
